symbolic/32x32/mimetypes/text-x-changelog.svg

<svg xmlns="http://www.w3.org/2000/svg" width="32" height="32" version="1.1">
 <path style="opacity:0.2" d="M 6.375,3 C 5.61325,3 5,3.6244 5,4.4 V 29.6 C 5,30.37504 5.61325,31 6.375,31 h 19.25 C 26.3862,31 27,30.37504 27,29.6 V 12 L 20,10 18,3 Z"/>
 <path style="fill:#e4e4e4" d="M 6.375,2 C 5.61325,2 5,2.6244 5,3.4 V 28.6 C 5,29.37504 5.61325,30 6.375,30 h 19.25 C 26.3862,30 27,29.37504 27,28.6 V 11 L 20,9 18,2 Z"/>
 <path style="opacity:0.2" d="M 27,12 18,3 v 7.59375 C 18,11.373375 18.62775,12 19.40625,12 Z"/>
 <path style="fill:#fafafa" d="M 27,11 18,2 V 9.59375 C 18,10.373375 18.62775,11 19.40625,11 Z"/>
 <path style="opacity:0.2;fill:#ffffff" d="M 6.375,2 C 5.61325,2 5,2.6247906 5,3.4003906 v 1 C 5,3.6247906 5.61325,3 6.375,3 H 18 V 2 Z"/>
 <path style="opacity:0.5" d="M 9 16 L 9 17 L 10 17 L 10 16 L 9 16 z M 12 16 L 12 17 L 23 17 L 23 16 L 12 16 z M 9 19 L 9 20 L 10 20 L 10 19 L 9 19 z M 12 19 L 12 20 L 23 20 L 23 19 L 12 19 z M 9 22 L 9 23 L 10 23 L 10 22 L 9 22 z M 12 22 L 12 23 L 23 23 L 23 22 L 12 22 z M 9 25 L 9 26 L 10 26 L 10 25 L 9 25 z M 12 25 L 12 26 L 23 26 L 23 25 L 12 25 z"/>
</svg>

<svg xmlns="http://www.w3.org/2000/svg" width="32" height="32"><path style="opacity:.2" d="M6.375 3C5.613 3 5 3.624 5 4.4v25.2c0 .775.613 1.4 1.375 1.4h19.25c.761 0 1.375-.625 1.375-1.4V12l-7-2-2-7z"/><path style="fill:#e4e4e4" d="M6.375 2C5.613 2 5 2.624 5 3.4v25.2c0 .775.613 1.4 1.375 1.4h19.25c.761 0 1.375-.625 1.375-1.4V11l-7-2-2-7z"/><path style="opacity:.2" d="m27 12-9-9v7.594c0 .78.628 1.406 1.406 1.406z"/><path style="fill:#fafafa" d="m27 11-9-9v7.594c0 .78.628 1.406 1.406 1.406z"/><path style="opacity:.2;fill:#fff" d="M6.375 2C5.613 2 5 2.625 5 3.4v1C5 3.625 5.613 3 6.375 3H18V2z"/><path style="opacity:.5" d="M9 16v1h1v-1H9zm3 0v1h11v-1H12zm-3 3v1h1v-1H9zm3 0v1h11v-1H12zm-3 3v1h1v-1H9zm3 0v1h11v-1H12zm-3 3v1h1v-1H9zm3 0v1h11v-1H12z"/></svg>
